assets/sonr-icons/user-circle.svg

<svg xmlns="http://www.w3.org/2000/svg" width="24" height="24" fill="none" viewBox="0 0 24 24"><path fill="#000" fill-rule="evenodd" d="M12 4.8C9.34881 4.8 7.2 6.94881 7.2 9.6C7.2 12.2512 9.34881 14.4 12 14.4C14.6512 14.4 16.8 12.2512 16.8 9.6C16.8 6.94881 14.6512 4.8 12 4.8ZM9.12 9.6C9.12 8.0092 10.4092 6.72 12 6.72C13.5908 6.72 14.88 8.0092 14.88 9.6C14.88 11.1908 13.5908 12.48 12 12.48C10.4092 12.48 9.12 11.1908 9.12 9.6Z" clip-rule="evenodd"/><path fill="#000" fill-rule="evenodd" d="M22.56 12C22.56 15.1142 21.212 17.9136 19.0676 19.8463C19.0613 19.8522 19.0549 19.8579 19.0484 19.8636C17.1792 21.5402 14.7087 22.56 12 22.56C9.2913 22.56 6.82082 21.5402 4.95155 19.8636C4.94761 19.8601 4.94371 19.8566 4.93983 19.8531C4.93734 19.8509 4.93486 19.8486 4.9324 19.8463C2.78802 17.9136 1.44 15.1142 1.44 12C1.44 6.16781 6.16781 1.44 12 1.44C17.8322 1.44 22.56 6.16781 22.56 12ZM3.36 12C3.36 7.2282 7.2282 3.36 12 3.36C16.7718 3.36 20.64 7.2282 20.64 12C20.64 14.1324 19.8675 16.0844 18.5871 17.5913C17.7075 16.5226 16.3743 15.84 14.88 15.84H9.12C7.62569 15.84 6.2925 16.5226 5.41289 17.5913C4.13249 16.0844 3.36 14.1324 3.36 12ZM14.88 17.76C15.8214 17.76 16.6584 18.2118 17.1844 18.9124C15.7403 19.9972 13.9452 20.64 12 20.64C10.0548 20.64 8.2597 19.9972 6.81562 18.9124C7.34156 18.2118 8.17858 17.76 9.12 17.76H14.88Z" clip-rule="evenodd"/></svg>

<svg xmlns="http://www.w3.org/2000/svg" width="24" height="24" fill="none"><path fill="currentColor" fill-rule="evenodd" d="M12 4.8a4.8 4.8 0 1 0 0 9.6 4.8 4.8 0 0 0 0-9.6M9.12 9.6a2.88 2.88 0 1 1 5.76 0 2.88 2.88 0 0 1-5.76 0" clip-rule="evenodd"/><path fill="currentColor" fill-rule="evenodd" d="M22.56 12a10.53 10.53 0 0 1-3.512 7.864A10.52 10.52 0 0 1 12 22.56a10.52 10.52 0 0 1-7.068-2.714A10.53 10.53 0 0 1 1.44 12C1.44 6.168 6.168 1.44 12 1.44S22.56 6.168 22.56 12m-19.2 0a8.64 8.64 0 1 1 17.28 0 8.6 8.6 0 0 1-2.053 5.591 4.79 4.79 0 0 0-3.707-1.751H9.12a4.79 4.79 0 0 0-3.707 1.751A8.6 8.6 0 0 1 3.36 12m11.52 5.76c.941 0 1.778.452 2.304 1.152A8.6 8.6 0 0 1 12 20.64a8.6 8.6 0 0 1-5.184-1.728A2.88 2.88 0 0 1 9.12 17.76z" clip-rule="evenodd"/></svg>
